X: 10513
T: Doon Da Rooth
R: jig
M: 6/8
K: Gmajor
G2G BdB|gdB AGB-|B2d edB|A2B G2G|
BdB gdB|AG B3A|1 BGG G2G:|2 BGG GBd||
|:g2g dgg|edB AGB-|B2d eee|e2f g2g|
dgg edB|AG B3A|1 BGG GBd:|2 BGG GED||

